!!!OTL: Jesus im Garten. / a. Aeltere Lesart.
!!!ARE: Europa, Mitteleuropa, Deutschland
!!!SCT: A0542A
!!!TXL: @@DE
!!!YEM: Copyright 1995, estate of Helmut Schaffrath.
**kern	**text
*M6/2	*
*met(O.)	*
*met(3)	*
*clefC3	*
*k[]	*
*G:ion	*
!LO:TX:a:t=P:2r, 2r in the source:problem	!
!LO:TX:a:t=jon. tr. (G dur.)	!
!LO:N:vis=1	!
2ryy	.
!LO:N:vis=1	!
2ryy	.
!LO:N:vis=1	!
{2d	Da
=1	=1
!LO:N:vis=0	!
1d	Je-
!LO:N:vis=1	!
2d	-ſus
!LO:N:vis=0	!
1d	in
!LO:N:vis=1	!
2d	dem
=2	=2
!LO:N:vis=0	!
1G	gar-
!LO:N:vis=1	!
2G	-ten
!LO:N:vis=0	!
1G}	ging,
!LO:N:vis=1	!
{2A	und
=3	=3
!LO:N:vis=0	!
1B	ſich
!LO:N:vis=1	!
2c	ſein
!LO:N:vis=0	!
1d	bit-
!LO:N:vis=1	!
2A	-ter
=4	=4
!LO:N:vis=0	!
1B	leid
!LO:N:vis=1	!
2c	an-
!LO:N:vis=0	!
1d}	-fing,
!LO:N:vis=1	!
{2B	da
=5	=5
!LO:N:vis=0	!
1c	trawret
!LO:N:vis=1	!
2d	.
!LO:N:vis=0	!
1e	al-
!LO:N:vis=1	!
2d	-les
=6	=6
!LO:N:vis=0	!
1c	was
!LO:N:vis=1	!
2B	da
!LO:N:vis=0	!
1c}	was,
!LO:N:vis=1	!
{2B	da
=7	=7
!LO:N:vis=0	!
1A	trawret
!LO:N:vis=1	!
2B	.
!LO:N:vis=0	!
1c	laub
!LO:N:vis=1	!
2A	vnd
=8	=8
!LO:N:vis=0	!
1d	grü-
!LO:N:vis=1	!
2c	-nes
1B/ll}	graß.
==	==
!!!GTL: Geistliche Volkslieder
!!!AGN: Romanze, Ballade, Lied, religioeses Lied
!! Andernacher Gsgb 1608 S. 195.
!!!ONB: ESAC (Essen Associative Code) Database: ALTDEU
!!!AMT: compound duple
!!!AIN: vox
!!!EED: Helmut Schaffrath
!!!EEV: 1.0
!!!RDF**kern: l = terminal long
!!!AMD: Ionian
!!!URL-scan: https://rosdok.uni-rostock.de/mcrviewer/recordIdentifier/rosdok_ppn738218359/iview2/phys_0723.iview2?x=-495.6391625615763&y=1051.5359605783597&scale=0.4629418472063854&rotation=0&layout=singlePageLayout&logicalDiv=log_0007
!!!ENC: Anna Maria Matuszewska
!!!EEV: 2024/20/03
*-	*-
